tools/download-figma-icons/icons/solid/connector-tesla.svg

<svg width="24" height="24" viewBox="0 0 24 24" fill="none" xmlns="http://www.w3.org/2000/svg">
<path fill-rule="evenodd" clip-rule="evenodd" d="M24 7.5C24 4.605 21.645 2.25 18.75 2.25C18.6525 2.25 18.555 2.25 18.4575 2.265V2.25H5.5425V2.265C5.445 2.25 5.3475 2.25 5.25 2.25C2.355 2.25 0 4.605 0 7.5C0 7.5975 0 7.6875 0.015 7.7775H0V10.035C0 10.2675 0.0224998 15.72 3.6525 19.365C5.7225 21.4425 8.535 22.5 12 22.5C15.465 22.5 18.2775 21.4425 20.3475 19.365C23.9775 15.72 24 10.2675 24 10.0425V7.7775H23.985C24 7.6875 24 7.5975 24 7.5ZM7.5 19.5C6.8775 19.5 6.375 18.9975 6.375 18.375C6.375 17.7525 6.8775 17.25 7.5 17.25C8.1225 17.25 8.625 17.7525 8.625 18.375C8.625 18.9975 8.1225 19.5 7.5 19.5ZM5.25 11.25C3.18 11.25 1.5 9.57 1.5 7.5C1.5 5.43 3.18 3.75 5.25 3.75C7.32 3.75 9 5.43 9 7.5C9 9.57 7.32 11.25 5.25 11.25ZM12 20.25C10.965 20.25 10.125 19.41 10.125 18.375C10.125 17.34 10.965 16.5 12 16.5C13.035 16.5 13.875 17.34 13.875 18.375C13.875 19.41 13.035 20.25 12 20.25ZM16.5 19.5C15.8775 19.5 15.375 18.9975 15.375 18.375C15.375 17.7525 15.8775 17.25 16.5 17.25C17.1225 17.25 17.625 17.7525 17.625 18.375C17.625 18.9975 17.1225 19.5 16.5 19.5ZM18.75 11.25C16.68 11.25 15 9.57 15 7.5C15 5.43 16.68 3.75 18.75 3.75C20.82 3.75 22.5 5.43 22.5 7.5C22.5 9.57 20.82 11.25 18.75 11.25ZM5.25 8.985C6.07843 8.985 6.75 8.31678 6.75 7.4925C6.75 6.66821 6.07843 6 5.25 6C4.42157 6 3.75 6.66821 3.75 7.4925C3.75 8.31678 4.42157 8.985 5.25 8.985ZM20.25 7.5C20.25 8.32843 19.5784 9 18.75 9C17.9216 9 17.25 8.32843 17.25 7.5C17.25 6.67157 17.9216 6 18.75 6C19.5784 6 20.25 6.67157 20.25 7.5Z" fill="black"/>
</svg>

<svg xmlns="http://www.w3.org/2000/svg" width="24" height="24" fill="none" viewBox="0 0 24 24"><path fill="currentColor" fill-rule="evenodd" d="M24 7.5a5.256 5.256 0 0 0-5.25-5.25c-.098 0-.195 0-.293.015V2.25H5.544v.015c-.098-.015-.195-.015-.293-.015A5.256 5.256 0 0 0 0 7.5c0 .098 0 .188.015.277H0v2.258c0 .232.022 5.685 3.653 9.33C5.723 21.443 8.535 22.5 12 22.5s6.278-1.058 8.348-3.135C23.978 15.72 24 10.268 24 10.043V7.778h-.015C24 7.688 24 7.598 24 7.5m-16.5 12a1.123 1.123 0 0 1-1.125-1.125 1.124 1.124 0 1 1 2.25 0c0 .622-.502 1.125-1.125 1.125m-2.25-8.25c-2.07 0-3.75-1.68-3.75-3.75s1.68-3.75 3.75-3.75S9 5.43 9 7.5s-1.68 3.75-3.75 3.75m6.75 9a1.876 1.876 0 1 1 .001-3.751A1.876 1.876 0 0 1 12 20.25m4.5-.75a1.123 1.123 0 0 1-1.125-1.125A1.124 1.124 0 1 1 16.5 19.5m2.25-8.25C16.68 11.25 15 9.57 15 7.5s1.68-3.75 3.75-3.75S22.5 5.43 22.5 7.5s-1.68 3.75-3.75 3.75M5.25 8.985c.828 0 1.5-.668 1.5-1.492C6.75 6.667 6.078 6 5.25 6s-1.5.668-1.5 1.492c0 .825.672 1.493 1.5 1.493m15-1.485a1.5 1.5 0 1 1-3 0 1.5 1.5 0 0 1 3 0" clip-rule="evenodd"/></svg>
